brandFactory_export/2.Regular/Documento_Archivo ZIP_2Regular.svg

<?xml version="1.0" encoding="UTF-8"?>
<svg width="24px" height="24px" viewBox="0 0 24 24" version="1.1" xmlns="http://www.w3.org/2000/svg" xmlns:xlink="http://www.w3.org/1999/xlink">
    <title>2.Regular/Documento_Archivo ZIP_2Regular</title>
    <g id="Symbols" stroke="none" stroke-width="1" fill="none" fill-rule="evenodd">
        <g id="2.Regular/Documento_Archivo-ZIP_2Regular" fill="#5CB615" fill-rule="nonzero">
            <path d="M16.2117647,0.0302521008 C16.487395,0.0302521008 16.7462185,0.134453782 16.9445378,0.322689076 L23.307563,6.48403361 C23.512605,6.68571429 23.6235294,6.9512605 23.6235294,7.2302521 L23.6235294,21.9966387 C23.6235294,22.897479 22.8504202,23.6571429 21.9327731,23.6571429 L7.31428571,23.6571429 C6.41344538,23.6571429 5.62352941,22.8806723 5.62352941,21.9966387 L5.66386555,18.6689076 L2.90420168,18.6689076 C1.30420168,18.6689076 2.19149143e-10,17.3613445 2.19149143e-10,15.7579832 L2.19149143e-10,10.8436975 C2.19149143e-10,9.24033613 1.30420168,7.93277311 2.90420168,7.93277311 L5.62352941,7.93277311 L5.62352941,1.6907563 C5.62352941,0.820168067 6.4302521,0.0302521008 7.31428571,0.0302521008 L16.2117647,0.0302521008 Z M15.1596639,1.49243697 L7.31764706,1.49243697 C7.2302521,1.49243697 7.09243698,1.62352941 7.08571429,1.69411765 L7.08571429,7.93613445 L14.7226891,7.93613445 C16.3260504,7.93613445 17.6268908,9.24369748 17.6268908,10.8470588 L17.6268908,15.7613445 C17.6268908,17.3647059 16.3226891,18.6722689 14.7226891,18.6722689 L7.12605042,18.6722689 L7.08571429,22.0067227 C7.08571429,22.0672269 7.20672269,22.1983193 7.31764706,22.1983193 L21.9327731,22.1983193 C22.0504202,22.1983193 22.1647059,22.0840336 22.1647059,21.9966387 L22.1647059,8.27563025 L19.3915966,8.27563025 C18.1747899,8.27563025 17.1226891,7.8789916 16.3495798,7.13277311 C15.5697479,6.37983193 15.1596639,5.34789916 15.1596639,4.15462185 L15.1596639,1.49243697 Z M14.7193277,9.39495798 L2.90420168,9.39495798 C2.10420168,9.39495798 1.45546219,10.0470588 1.45546219,10.8470588 L1.45546219,15.7613445 C1.45546219,16.5613445 2.10420168,17.2134454 2.90420168,17.2134454 L14.7193277,17.2134454 C15.5193277,17.2134454 16.1680672,16.5613445 16.1680672,15.7613445 L16.1680672,10.8470588 C16.1680672,10.0470588 15.5193277,9.39495798 14.7193277,9.39495798 Z M7.39831933,11.1428571 L7.39831933,11.7647059 L5.27394958,14.8369748 L7.41176471,14.8369748 L7.41176471,15.5831933 L3.99327731,15.5831933 L3.99327731,14.9882353 L6.1512605,11.8890756 L4.05714286,11.8890756 L4.05714286,11.1428571 L7.39831933,11.1428571 Z M9.15966387,11.1394958 L9.15966387,15.5831933 L8.14453782,15.5831933 L8.14453782,11.1394958 L9.15966387,11.1394958 Z M11.6571429,11.1394958 C12.3529412,11.1394958 12.7932773,11.2369748 13.0789916,11.502521 C13.3210084,11.7243697 13.4352941,12.0672269 13.4352941,12.5411765 C13.4352941,13.0151261 13.3243697,13.3714286 13.102521,13.6201681 C12.8436975,13.912605 12.4403361,14.0504202 11.8554622,14.0504202 L11.1394958,14.0504202 L11.1394958,15.5831933 L10.1243697,15.5831933 L10.1243697,11.1394958 L11.6571429,11.1394958 Z M11.6201681,11.8756303 L11.1462185,11.8756303 L11.1462185,13.2941176 L11.6470588,13.2941176 L11.6470588,13.2907563 C11.9731092,13.2907563 12.107563,13.2436975 12.2386555,13.1226891 C12.3563025,13.005042 12.4134454,12.8168067 12.4134454,12.5579832 C12.4134454,12.3193277 12.3630252,12.1411765 12.2453782,12.0302521 C12.1210084,11.9193277 11.9327731,11.8756303 11.6201681,11.8756303 Z M16.6184874,2.03697479 L16.6184874,4.15462185 C16.6184874,4.94453782 16.8773109,5.61008403 17.3647059,6.08403361 C17.8621849,6.56470588 18.5613445,6.81680672 19.394958,6.81680672 L21.5563025,6.81680672 L16.6184874,2.03697479 Z" id="Documento_Archivo-ZIP_2Regular"></path>
        </g>
    </g>
</svg>

<svg width="24" height="24" viewBox="0 0 24 24" xmlns="http://www.w3.org/2000/svg"><path d="M16.212.03c.275 0 .534.104.733.293l6.363 6.161c.205.202.316.467.316.746v14.767c0 .9-.774 1.66-1.691 1.66H7.314c-.9 0-1.69-.776-1.69-1.66l.04-3.328h-2.76A2.913 2.913 0 010 15.758v-4.914a2.913 2.913 0 012.904-2.911h2.72V1.69c0-.87.806-1.66 1.69-1.66h8.898zM15.16 1.492H7.318c-.088 0-.226.132-.232.202v6.242h7.637a2.91 2.91 0 012.904 2.911v4.914a2.913 2.913 0 01-2.904 2.911H7.126l-.04 3.335c0 .06.12.191.232.191h14.615c.117 0 .232-.114.232-.201V8.276h-2.773c-1.217 0-2.27-.397-3.042-1.143-.78-.753-1.19-1.785-1.19-2.978V1.492zm-.44 7.903H2.903c-.8 0-1.449.652-1.449 1.452v4.914c0 .8.65 1.452 1.45 1.452h11.814c.8 0 1.45-.652 1.45-1.452v-4.914c0-.8-.65-1.452-1.45-1.452zm-7.322 1.748v.622l-2.124 3.072h2.138v.746H3.993v-.595l2.158-3.099H4.057v-.746h3.341zm1.762-.004v4.444H8.145V11.14H9.16zm2.497 0c.696 0 1.136.098 1.422.364.242.221.356.564.356 1.038 0 .474-.11.83-.332 1.08-.26.292-.663.43-1.248.43h-.716v1.532h-1.015V11.14h1.533zm-.037.737h-.474v1.418h.501v-.003c.326 0 .46-.047.592-.168.117-.118.174-.306.174-.565 0-.239-.05-.417-.168-.528-.124-.11-.312-.154-.625-.154zm4.998-9.839v2.118c0 .79.26 1.455.747 1.929.497.48 1.196.733 2.03.733h2.161l-4.938-4.78z" fill="#5CB615" fill-rule="nonzero"/></svg>
